X: 148119
T: GENTLE DARK EYED MARY
Q: "Slow."
%R: air, strathspey
B: James Kerr "Merry Melodies" v.1 p.48 s.1 #19
Z: 2016 John Chambers <jc:trillian.mit.edu>
M: C
L: 1/8
K: Bm
|:\
vB>vA f2 f>e (fa) | f>d (3(fed) d2 (ef) |\
(FA) B2 B>A (Bd) | e>d f>e (dB) (Bd) ::\
B>A AA f2 ef | af (3(fed ) d2 (FA) |\
B>B BB A2 Bd | e>d f>d B2 B2 :|

%%sep 1 1 500
%%sep 1 1 500

